svgs/duotone/face-sleepy.svg

<svg xmlns="http://www.w3.org/2000/svg" viewBox="0 0 512 512"><!--! Font Awesome Pro 6.4.0 by @fontawesome - https://fontawesome.com License - https://fontawesome.com/license (Commercial License) Copyright 2023 Fonticons, Inc. --><defs><style>.fa-secondary{opacity:.4}</style></defs><path class="fa-primary" d="M195.2 246.4c-17.6 23.5-52.8 23.5-70.4 0c-5.3-7.1-15.3-8.5-22.4-3.2s-8.5 15.3-3.2 22.4c30.4 40.5 91.2 40.5 121.6 0c5.3-7.1 3.9-17.1-3.2-22.4s-17.1-3.9-22.4 3.2zm192 0c-17.6 23.5-52.8 23.5-70.4 0c-5.3-7.1-15.3-8.5-22.4-3.2s-8.5 15.3-3.2 22.4c30.4 40.5 91.2 40.5 121.6 0c5.3-7.1 3.9-17.1-3.2-22.4s-17.1-3.9-22.4 3.2zM512 464c0-80-112-128-160-128c64 25.6 64 96 64 128c0 26.5 21.5 48 48 48s48-21.5 48-48z"/><path class="fa-secondary" d="M256 512c47.1 0 91.2-12.7 129.1-34.9c-.7-4.3-1.1-8.7-1.1-13.1c0-16.3-.2-37.2-6.5-56.6c-5.9-18.2-16.4-33.3-37.4-41.7c-14.2-5.7-22.4-20.7-19.5-35.8s16.1-25.9 31.4-25.9c31.6 0 77.6 14.7 115.4 39.1c7.6 4.9 15.3 10.5 22.7 16.7c14.1-31.7 22-66.9 22-103.9C512 114.6 397.4 0 256 0S0 114.6 0 256S114.6 512 256 512zM194.3 405.9c-12.3 4.2-25.1-5.3-18.3-16.4C191.1 364.8 221.3 348 256 348s64.9 16.8 80.1 41.5c6.8 11.1-6 20.7-18.3 16.4c-18.9-6.5-39.8-10.1-61.8-10.1s-42.9 3.6-61.8 10.1zM387.2 246.4c5.3-7.1 15.3-8.5 22.4-3.2s8.5 15.3 3.2 22.4c-30.4 40.5-91.2 40.5-121.6 0c-5.3-7.1-3.9-17.1 3.2-22.4s17.1-3.9 22.4 3.2c17.6 23.5 52.8 23.5 70.4 0zm-262.4 0c17.6 23.5 52.8 23.5 70.4 0c5.3-7.1 15.3-8.5 22.4-3.2s8.5 15.3 3.2 22.4c-30.4 40.5-91.2 40.5-121.6 0c-5.3-7.1-3.9-17.1 3.2-22.4s17.1-3.9 22.4 3.2z"/></svg>

<svg xmlns="http://www.w3.org/2000/svg" viewBox="0 0 512 512"><!--! Font Awesome Pro 6.3.0 by @fontawesome - https://fontawesome.com License - https://fontawesome.com/license (Commercial License) Copyright 2023 Fonticons, Inc. --><defs><style>.fa-secondary{opacity:.4}</style></defs><path class="fa-primary" d="M217.6 243.2C224.7 248.5 226.1 258.5 220.8 265.6C190.4 306.1 129.6 306.1 99.2 265.6C93.9 258.5 95.33 248.5 102.4 243.2C109.5 237.9 119.5 239.3 124.8 246.4C142.4 269.9 177.6 269.9 195.2 246.4C200.5 239.3 210.5 237.9 217.6 243.2V243.2zM409.6 243.2C416.7 248.5 418.1 258.5 412.8 265.6C382.4 306.1 321.6 306.1 291.2 265.6C285.9 258.5 287.3 248.5 294.4 243.2C301.5 237.9 311.5 239.3 316.8 246.4C334.4 269.9 369.6 269.9 387.2 246.4C392.5 239.3 402.5 237.9 409.6 243.2V243.2zM464 512C437.5 512 416 490.5 416 464C416 432 416 361.6 352 336C400 336 512 384 512 464C512 490.5 490.5 512 464 512z"/><path class="fa-secondary" d="M0 256C0 114.6 114.6 0 256 0C397.4 0 512 114.6 512 256C512 292.1 504.2 328.1 490 359.9C482.7 353.6 474.1 348.1 467.4 343.1C429.6 318.7 383.6 304 352 304C336.7 304 323.5 314.9 320.6 329.9C317.7 345 325.9 360 340.1 365.7C361.1 374.1 371.7 389.2 377.5 407.4C383.8 426.8 384 447.7 384 464C384 468.5 384.4 472.9 385.1 477.1C347.2 499.3 303.1 512 256 512C114.6 512 0 397.4 0 256V256zM256 395.8C278 395.8 298.9 399.4 317.8 405.9C330.1 410.2 342.9 400.6 336.1 389.5C320.1 364.8 290.8 347.1 256 347.1C221.3 347.1 191.1 364.8 175.1 389.5C169.2 400.6 181.1 410.2 194.3 405.9C213.2 399.4 234.1 395.8 256 395.8V395.8zM387.2 246.4C369.6 269.9 334.4 269.9 316.8 246.4C311.5 239.3 301.5 237.9 294.4 243.2C287.3 248.5 285.9 258.5 291.2 265.6C321.6 306.1 382.4 306.1 412.8 265.6C418.1 258.5 416.7 248.5 409.6 243.2C402.5 237.9 392.5 239.3 387.2 246.4zM102.4 243.2C95.33 248.5 93.9 258.5 99.2 265.6C129.6 306.1 190.4 306.1 220.8 265.6C226.1 258.5 224.7 248.5 217.6 243.2C210.5 237.9 200.5 239.3 195.2 246.4C177.6 269.9 142.4 269.9 124.8 246.4C119.5 239.3 109.5 237.9 102.4 243.2V243.2z"/></svg>
